X: 1
T: A Bruxa
C: Antón Seoane
Z: gian marco
S: https://thesession.org/tunes/4194#setting4194
R: waltz
M: 3/4
L: 1/8
K: Amin
ec BA Bc|e2c2 Ad|cB F2c2|B6|
ec BA Bc|e2c2 Ad|cB F2B2|A6:|
AB c2d2|e6|fe d2g2|e6|
AB c2d2|e6|fe d2g2|e6|
|:~g2 ed ef|e2c2A2|ed cB cd|c2A2F2|
dc BA Bc|B2F2E2|FE F2^G2|1 A2c2e2:|2 A6||

